;FLAVOR:Marlin
;TIME:562
;Filament used: 0.618305m
;Layer height: 0.2
;MINX:73.61
;MINY:62.525
;MINZ:0.2
;MAXX:136.389
;MAXY:117.462
;MAXZ:5
;Generated with Cura_SteamEngine main
M140 S60
M105
M190 S60
M104 S200
M105
M109 S200
M82 ;absolute extrusion mode
G21 ;metric values
G90 ;absolute positioning
M82 ;set extruder to absolute mode
M107 ;start with the fan off
G28 X0 Y0 ;move X/Y to min endstops
G28 Z0 ;move Z to min endstops
G1 Z15.0 F100 ;move the platform down 15mm
G92 E0 ;zero the extruded length
G1 F200 E3 ;extrude 3mm of feed stock
G92 E0 ;zero the extruded length again
G1 F100
G0 Y20 F100
M117 Printing...
G5
G92 E0
G92 E0
G1 F2400 E-6
;LAYER_COUNT:25
;LAYER:0
M107
M204 S3000
M205 X10 Y10
G1 F600 Z0.275
G0 F3000 X76.497 Y69.599 Z0.275
G1 F600 Z0.2
G0 F3000 X73.61 Y76.509
M204 S1800
M205 X8 Y8
;TYPE:SKIRT
G1 F2400 E0
G1 X73.64 Y75.899 E0.02844
G1 X73.697 Y75.313 E0.05585
G1 X73.806 Y74.606 E0.08916
G1 X73.944 Y74.071 E0.11489
G1 X74.107 Y73.535 E0.14098
G1 X74.491 Y72.565 E0.18956
G1 X74.755 Y72.03 E0.21734
G1 X75.244 Y71.202 E0.26211
G1 X75.672 Y70.588 E0.29696
G1 X76.104 Y70.035 E0.32964
G1 X76.497 Y69.599 E0.35697
G1 X76.872 Y69.214 E0.382
G1 X77.306 Y68.809 E0.40964
G1 X77.82 Y68.371 E0.44108
G1 X78.224 Y68.054 E0.465
G1 X78.829 Y67.617 E0.49975
G1 X79.507 Y67.159 E0.53785
G1 X80.68 Y66.485 E0.60084
G1 X81.655 Y66.006 E0.65142
G1 X82.245 Y65.739 E0.68158
G1 X82.867 Y65.476 E0.71302
G1 X83.61 Y65.187 E0.75015
G1 X84.289 Y64.943 E0.78374
G1 X85.102 Y64.676 E0.82359
G1 X85.847 Y64.451 E0.85983
G1 X86.573 Y64.249 E0.89492
G1 X87.447 Y64.027 E0.93691
G1 X88.161 Y63.86 E0.97105
G1 X88.974 Y63.687 E1.00975
G1 X89.812 Y63.525 E1.0495
G1 X90.685 Y63.372 E1.09077
G1 X91.581 Y63.232 E1.133
G1 X92.447 Y63.11 E1.17372
G1 X93.287 Y63.005 E1.21314
G1 X94.323 Y62.893 E1.26166
G1 X95.263 Y62.805 E1.30562
G1 X95.99 Y62.747 E1.33958
G1 X97.126 Y62.671 E1.39259
G1 X98.035 Y62.622 E1.43498
G1 X99.91 Y62.556 E1.52234
G1 X101.784 Y62.525 E1.60962
G1 X102.951 Y62.53 E1.66396
G1 X104.134 Y62.546 E1.71905
G1 X105.481 Y62.576 E1.78179
G1 X107.478 Y62.658 E1.87485
G1 X108.454 Y62.709 E1.92036
G1 X110.661 Y62.851 E2.02334
G1 X112.774 Y63.018 E2.12204
G1 X114.014 Y63.134 E2.18003
G1 X115.868 Y63.322 E2.2668
G1 X117.192 Y63.468 E2.32883
G1 X119.497 Y63.75 E2.43696
G1 X122.708 Y64.188 E2.58786
G1 X125.336 Y64.585 E2.71162
G1 X128.468 Y65.099 E2.85941
G1 X129.157 Y65.226 E2.89203
G1 X129.852 Y65.395 E2.92534
G1 X130.524 Y65.64 E2.95864
G1 X131.272 Y66.013 E2.99756
G1 X132.082 Y66.549 E3.04279
G1 X132.649 Y66.971 E3.0757
G1 X133.077 Y67.328 E3.10166
G1 X133.59 Y67.806 E3.13431
G1 X133.994 Y68.226 E3.16144
G1 X134.402 Y68.693 E3.19032
G1 X134.746 Y69.128 E3.21614
G1 X135.28 Y69.881 E3.25913
G1 X135.743 Y70.712 E3.30342
G1 X136.02 Y71.371 E3.33671
G1 X136.221 Y72.058 E3.37004
G1 X136.345 Y72.762 E3.40332
G1 X136.388 Y73.608 E3.44277
G1 X136.345 Y76.462 E3.57568
G1 X136.389 Y79.443 E3.7145
G1 X136.36 Y80.158 E3.74782
G1 X136.251 Y80.865 E3.78113
G1 X136.063 Y81.555 E3.81443
G1 X135.8 Y82.22 E3.84773
G1 X135.386 Y82.979 E3.88799
G1 X135.083 Y83.454 E3.91422
G1 X134.73 Y83.952 E3.94265
G1 X133.942 Y84.96 E4.00222
G1 X133.386 Y85.65 E4.04349
G1 X131.806 Y87.728 E4.16504
G1 X130.225 Y89.934 E4.29142
G1 X128.783 Y92.068 E4.41134
G1 X127.328 Y94.361 E4.5378
G1 X126.012 Y96.573 E4.65765
G1 X124.698 Y98.927 E4.78318
G1 X123.485 Y101.253 E4.90533
G1 X122.311 Y103.67 E5.03045
G1 X121.231 Y106.063 E5.1527
G1 X120.212 Y108.5 E5.2757
G1 X119.264 Y110.956 E5.39828
G1 X118.986 Y111.623 E5.43193
G1 X118.547 Y112.503 E5.47772
G1 X117.917 Y113.437 E5.53018
G1 X117.6 Y113.829 E5.55366
G1 X117.26 Y114.223 E5.57789
G1 X116.585 Y114.909 E5.62271
G1 X115.863 Y115.477 E5.66548
G1 X115.318 Y115.854 E5.69634
G1 X114.615 Y116.285 E5.73474
G1 X113.595 Y116.75 E5.78693
G1 X112.364 Y117.163 E5.84739
G1 X111.111 Y117.377 E5.90658
G1 X110.284 Y117.45 E5.94524
G1 X109.628 Y117.455 E5.97579
G1 X108.014 Y117.401 E6.05099
G1 X105.408 Y117.358 E6.17235
G1 X102.734 Y117.389 E6.29687
G1 X102.036 Y117.419 E6.3294
G1 X101.886 Y117.417 E6.33639
G1 X100.413 Y117.462 E6.40501
G1 X99.523 Y117.441 E6.44646
G1 X98.746 Y117.36 E6.48284
G1 X98.157 Y117.262 E6.51064
G1 X96.932 Y116.951 E6.56949
G1 X95.985 Y116.561 E6.61718
G1 X95.51 Y116.332 E6.64174
G1 X94.478 Y115.735 E6.69725
G1 X93.43 Y114.913 E6.75927
G1 X92.649 Y114.101 E6.81173
G1 X92.043 Y113.352 E6.85659
G1 X91.517 Y112.557 E6.90098
G1 X91.267 Y112.11 E6.92483
G1 X90.832 Y111.155 E6.97369
G1 X90.592 Y110.487 E7.00675
G1 X89.826 Y108.249 E7.11689
G1 X88.91 Y105.801 E7.2386
G1 X87.901 Y103.318 E7.3634
G1 X86.84 Y100.909 E7.48597
G1 X85.708 Y98.521 E7.60903
G1 X84.503 Y96.155 E7.73266
G1 X83.238 Y93.837 E7.85563
G1 X81.918 Y91.571 E7.97774
G1 X80.487 Y89.27 E8.10391
G1 X79.051 Y87.097 E8.22519
G1 X77.524 Y84.926 E8.34879
G1 X76.093 Y82.999 E8.46055
G1 X75.632 Y82.393 E8.49601
G1 X75.282 Y81.885 E8.52473
G1 X74.93 Y81.316 E8.55589
G1 X74.447 Y80.367 E8.60547
G1 X74.214 Y79.796 E8.63419
G1 X73.897 Y78.828 E8.68162
G1 X73.717 Y77.837 E8.72852
G1 X73.649 Y77.223 E8.75728
G1 X73.61 Y76.509 E8.79058
M204 S3000
M205 X10 Y10
G0 F3000 X74.17 Y76.48
M204 S1800
M205 X8 Y8
G1 F2400 X74.197 Y75.954 E8.8151
G1 X74.254 Y75.368 E8.84252
G1 X74.381 Y74.56 E8.8806
G1 X74.643 Y73.698 E8.92255
G1 X74.993 Y72.813 E8.96687
G1 X75.257 Y72.278 E8.99465
G1 X75.703 Y71.522 E9.03552
G1 X76.131 Y70.908 E9.07037
G1 X76.525 Y70.404 E9.10016
G1 X76.899 Y69.99 E9.12614
G1 X77.274 Y69.605 E9.15117
G1 X77.669 Y69.235 E9.17637
G1 X78.362 Y68.645 E9.21875
G1 X79.156 Y68.071 E9.26437
G1 X79.802 Y67.636 E9.30063
G1 X80.942 Y66.981 E9.36185
G1 X81.886 Y66.516 E9.41085
G1 X82.476 Y66.249 E9.44101
G1 X83.234 Y65.932 E9.47927
G1 X83.812 Y65.709 E9.50812
G1 X84.476 Y65.471 E9.54096
G1 X85.628 Y65.095 E9.59739
G1 X86.855 Y64.754 E9.65669
G1 X87.575 Y64.572 E9.69127
G1 X88.289 Y64.405 E9.72541
G1 X88.976 Y64.258 E9.75812
G1 X90.017 Y64.057 E9.80749
G1 X90.772 Y63.925 E9.84318
G1 X91.659 Y63.787 E9.88498
G1 X92.517 Y63.666 E9.92533
G1 X93.357 Y63.561 E9.96475
G1 X94.375 Y63.451 E10.01243
G1 X95.308 Y63.363 E10.05606
G1 X96.105 Y63.3 E10.09329
G1 X97.156 Y63.23 E10.14234
G1 X97.94 Y63.187 E10.1789
G1 X100.038 Y63.113 E10.27665
G1 X101.782 Y63.085 E10.35787
G1 X104.122 Y63.105 E10.46683
G1 X105.348 Y63.132 E10.52394
G1 X107.449 Y63.218 E10.62185
G1 X108.419 Y63.268 E10.66708
G1 X110.617 Y63.409 E10.76963
G1 X112.722 Y63.576 E10.86796
G1 X113.957 Y63.691 E10.92572
G1 X115.807 Y63.879 E11.0123
G1 X117.124 Y64.024 E11.074
G1 X119.429 Y64.306 E11.18213
G1 X122.624 Y64.742 E11.33228
G1 X125.245 Y65.138 E11.45571
G1 X128.367 Y65.65 E11.60303
G1 X129.056 Y65.777 E11.63565
G1 X129.719 Y65.94 E11.66744
G1 X130.359 Y66.179 E11.69925
G1 X131.22 Y66.65 E11.74495
G1 X131.773 Y67.016 E11.77583
G1 X132.291 Y67.401 E11.80588
G1 X132.719 Y67.758 E11.83183
G1 X133.187 Y68.194 E11.86162
G1 X133.591 Y68.614 E11.88875
G1 X133.963 Y69.041 E11.91512
G1 X134.307 Y69.476 E11.94095
G1 X134.809 Y70.184 E11.98136
G1 X135.253 Y70.984 E12.02397
G1 X135.512 Y71.616 E12.05577
G1 X135.696 Y72.275 E12.08763
G1 X135.802 Y72.95 E12.11944
G1 X135.828 Y73.6 E12.14974
G1 X135.785 Y76.462 E12.28302
G1 X135.829 Y79.452 E12.42226
G1 X135.799 Y80.134 E12.45405
G1 X135.69 Y80.809 E12.48589
G1 X135.502 Y81.466 E12.51771
G1 X135.239 Y82.096 E12.54949
G1 X134.914 Y82.678 E12.58053
G1 X134.611 Y83.153 E12.60677
G1 X134.289 Y83.608 E12.63272
G1 X133.506 Y84.609 E12.6919
G1 X132.935 Y85.318 E12.73429
G1 X131.335 Y87.421 E12.85733
G1 X129.794 Y89.572 E12.98054
G1 X128.306 Y91.773 E13.10426
G1 X126.861 Y94.053 E13.22995
G1 X125.519 Y96.307 E13.3521
G1 X124.206 Y98.659 E13.47753
G1 X122.978 Y101.014 E13.6012
G1 X121.811 Y103.415 E13.72551
G1 X120.724 Y105.824 E13.84857
G1 X119.683 Y108.317 E13.97437
G1 X118.925 Y110.266 E14.07174
G1 X118.74 Y110.759 E14.09626
G1 X118.471 Y111.403 E14.12876
G1 X118.061 Y112.225 E14.17153
G1 X117.405 Y113.197 E14.22614
G1 X116.836 Y113.857 E14.26671
G1 X116.212 Y114.491 E14.30814
G1 X115.544 Y115.017 E14.34773
G1 X114.999 Y115.394 E14.37858
G1 X114.042 Y115.941 E14.42991
G1 X113.293 Y116.262 E14.46786
G1 X112.228 Y116.621 E14.52019
G1 X111.062 Y116.82 E14.57527
G1 X110.259 Y116.89 E14.6128
G1 X109.644 Y116.896 E14.64144
G1 X108.55 Y116.864 E14.6924
G1 X108.05 Y116.842 E14.71571
G1 X105.41 Y116.798 E14.83865
G1 X102.735 Y116.829 E14.96322
G1 X102.012 Y116.86 E14.99692
G1 X101.857 Y116.858 E15.00414
G1 X100.396 Y116.902 E15.0722
G1 X99.547 Y116.882 E15.11174
G1 X98.837 Y116.808 E15.14498
G1 X98.248 Y116.71 E15.17278
G1 X97.115 Y116.422 E15.22722
G1 X96.228 Y116.057 E15.27188
G1 X95.753 Y115.828 E15.29644
G1 X94.79 Y115.272 E15.34821
G1 X93.803 Y114.494 E15.40673
G1 X93.08 Y113.743 E15.45528
G1 X92.486 Y113.009 E15.49924
G1 X92.006 Y112.284 E15.53973
G1 X91.756 Y111.837 E15.56358
G1 X91.358 Y110.965 E15.60821
G1 X91.152 Y110.393 E15.63652
G1 X90.364 Y108.091 E15.74982
G1 X89.421 Y105.571 E15.87511
G1 X88.425 Y103.119 E15.99834
G1 X87.344 Y100.664 E16.12325
G1 X86.212 Y98.278 E16.24622
G1 X85.007 Y95.911 E16.3699
G1 X83.712 Y93.538 E16.49578
G1 X82.391 Y91.271 E16.61795
G1 X80.969 Y88.984 E16.74335
G1 X79.515 Y86.785 E16.86611
G1 X77.966 Y84.581 E16.99155
G1 X76.583 Y82.719 E17.09955
G1 X76.077 Y82.054 E17.13846
G1 X75.759 Y81.59 E17.16465
G1 X75.407 Y81.021 E17.19581
G1 X74.966 Y80.155 E17.24106
G1 X74.733 Y79.584 E17.26977
G1 X74.439 Y78.692 E17.31351
G1 X74.273 Y77.776 E17.35686
G1 X74.205 Y77.162 E17.38562
G1 X74.17 Y76.48 E17.41742
M204 S3000
M205 X10 Y10
G0 F3000 X74.724 Y76.328
M204 S1800
M205 X8 Y8
G1 F2400 X74.812 Y75.422 E17.4598
G1 X74.931 Y74.673 E17.49512
G1 X75.178 Y73.861 E17.53464
G1 X75.495 Y73.061 E17.57471
G1 X75.759 Y72.526 E17.60249
G1 X76.162 Y71.843 E17.63942
G1 X76.59 Y71.229 E17.67427
G1 X76.947 Y70.773 E17.70123
G1 X77.3 Y70.381 E17.7258
G1 X77.852 Y69.814 E17.76264
G1 X78.704 Y69.089 E17.81474
G1 X79.484 Y68.525 E17.85956
G1 X80.09 Y68.116 E17.8936
G1 X81.211 Y67.473 E17.95378
G1 X81.945 Y67.108 E17.99195
G1 X82.847 Y66.699 E18.03806
G1 X83.435 Y66.455 E18.06771
G1 X84.144 Y66.183 E18.10307
G1 X84.664 Y65.998 E18.12877
G1 X85.568 Y65.703 E18.17305
G1 X86.148 Y65.53 E18.20123
G1 X86.874 Y65.328 E18.23632
G1 X87.702 Y65.118 E18.27609
G1 X88.523 Y64.927 E18.31534
G1 X89.187 Y64.787 E18.34694
G1 X90.025 Y64.625 E18.38669
G1 X90.859 Y64.479 E18.42611
G1 X91.738 Y64.341 E18.46754
G1 X92.499 Y64.233 E18.50333
G1 X93.514 Y64.106 E18.55096
G1 X94.428 Y64.008 E18.59377
G1 X95.276 Y63.928 E18.63343
G1 X96.143 Y63.859 E18.67393
G1 X97.187 Y63.789 E18.72265
G1 X98.074 Y63.741 E18.76401
G1 X99.949 Y63.675 E18.85137
G1 X101.78 Y63.645 E18.93665
G1 X102.936 Y63.649 E18.99047
G1 X104.109 Y63.665 E19.0451
G1 X105.435 Y63.695 E19.10686
G1 X107.421 Y63.777 E19.19941
G1 X108.383 Y63.827 E19.24427
G1 X110.573 Y63.967 E19.34645
G1 X112.598 Y64.127 E19.44104
G1 X113.9 Y64.248 E19.50193
G1 X115.746 Y64.436 E19.58833
G1 X117.056 Y64.58 E19.6497
G1 X119.434 Y64.871 E19.76125
G1 X122.468 Y65.285 E19.90384
G1 X125.155 Y65.69 E20.03037
G1 X128.265 Y66.2 E20.17712
G1 X128.954 Y66.327 E20.20974
G1 X129.585 Y66.484 E20.24002
G1 X130.191 Y66.717 E20.27025
G1 X130.911 Y67.117 E20.3086
G1 X131.464 Y67.483 E20.33948
G1 X131.932 Y67.831 E20.36664
G1 X132.36 Y68.188 E20.39259
G1 X132.783 Y68.583 E20.41954
G1 X133.187 Y69.003 E20.44667
G1 X133.523 Y69.388 E20.47047
G1 X133.867 Y69.823 E20.49629
G1 X134.34 Y70.488 E20.53429
G1 X134.762 Y71.256 E20.5751
G1 X135.003 Y71.859 E20.60533
G1 X135.168 Y72.487 E20.63557
G1 X135.273 Y73.264 E20.67208
G1 X135.225 Y76.451 E20.82049
G1 X135.269 Y79.46 E20.96062
G1 X135.239 Y80.109 E20.99087
G1 X135.129 Y80.749 E21.02111
G1 X134.941 Y81.371 E21.05137
G1 X134.623 Y82.091 E21.08802
G1 X134.138 Y82.852 E21.13004
G1 X133.848 Y83.263 E21.15346
G1 X133.07 Y84.257 E21.21224
G1 X132.515 Y84.946 E21.25343
G1 X130.878 Y87.098 E21.37934
G1 X129.323 Y89.267 E21.50361
G1 X127.841 Y91.462 E21.62693
G1 X126.393 Y93.744 E21.75278
G1 X125.026 Y96.041 E21.87724
G1 X123.722 Y98.378 E22.00186
G1 X122.465 Y100.788 E22.12843
G1 X121.318 Y103.148 E22.25061
G1 X120.199 Y105.628 E22.3773
G1 X119.167 Y108.099 E22.50199
G1 X118.028 Y111.037 E22.64872
G1 X117.576 Y111.946 E22.69599
G1 X116.963 Y112.853 E22.74696
G1 X116.412 Y113.492 E22.78625
G1 X115.84 Y114.074 E22.82425
G1 X115.226 Y114.556 E22.8606
G1 X114.681 Y114.933 E22.89145
G1 X113.885 Y115.387 E22.93412
G1 X113.159 Y115.718 E22.97128
G1 X112.088 Y116.078 E23.02389
G1 X111.013 Y116.262 E23.07467
G1 X110.235 Y116.33 E23.11104
G1 X109.661 Y116.336 E23.13777
G1 X108.484 Y116.301 E23.1926
G1 X108.049 Y116.281 E23.21288
G1 X105.413 Y116.238 E23.33564
G1 X102.705 Y116.269 E23.46174
G1 X101.988 Y116.3 E23.49516
G1 X101.865 Y116.298 E23.50089
G1 X100.379 Y116.343 E23.57011
G1 X99.571 Y116.322 E23.60775
G1 X98.929 Y116.255 E23.6378
G1 X98.34 Y116.157 E23.66561
G1 X97.296 Y115.893 E23.71575
G1 X96.471 Y115.552 E23.75732
G1 X95.996 Y115.323 E23.78187
G1 X95.109 Y114.811 E23.82956
G1 X94.178 Y114.08 E23.88468
G1 X93.51 Y113.385 E23.92957
G1 X92.929 Y112.666 E23.97261
G1 X92.495 Y112.01 E24.00924
G1 X92.245 Y111.563 E24.03309
G1 X91.885 Y110.775 E24.07343
G1 X91.679 Y110.203 E24.10174
G1 X90.888 Y107.891 E24.21552
G1 X89.945 Y105.372 E24.34076
G1 X88.942 Y102.903 E24.46485
G1 X87.855 Y100.436 E24.59038
G1 X86.716 Y98.034 E24.71417
G1 X85.489 Y95.624 E24.8401
G1 X84.225 Y93.307 E24.963
G1 X82.849 Y90.945 E25.09028
G1 X81.452 Y88.698 E25.21348
G1 X79.98 Y86.473 E25.33771
G1 X78.439 Y84.279 E25.46255
G1 X76.992 Y82.332 E25.57551
G1 X76.523 Y81.715 E25.6116
G1 X76.235 Y81.296 E25.63527
G1 X75.883 Y80.727 E25.66643
G1 X75.484 Y79.944 E25.70735
G1 X75.251 Y79.373 E25.73607
G1 X74.982 Y78.553 E25.77625
G1 X74.83 Y77.714 E25.81595
G1 X74.762 Y77.1 E25.84472
G1 X74.724 Y76.328 E25.88071
M204 S3000
M205 X10 Y10
G1 F2400 E19.88071
;MESH:pin.stl
G0 F3000 X79.343 Y76.405
G0 X80.422 Y76.511
G0 X81.264 Y77.274
G1 F2400 E25.88071
G0 F3000 X81.819 Y76.997
M204 S1800
M205 X8 Y8
;TYPE:WALL-OUTER
G1 F1500 X81.713 Y76.494 E25.90465
G1 X81.85 Y75.94 E25.93122
G1 X82.174 Y75.421 E25.95971
G1 X82.521 Y75.029 E25.98409
G1 X83.007 Y74.597 E26.01437
G1 X83.446 Y74.277 E26.03966
G1 X83.957 Y73.953 E26.06784
G1 X84.529 Y73.635 E26.09831
G1 X85.169 Y73.323 E26.13146
G1 X85.872 Y73.017 E26.16716
G1 X86.63 Y72.724 E26.205
G1 X87.461 Y72.44 E26.2459
G1 X88.343 Y72.177 E26.28875
G1 X88.975 Y72.009 E26.3192
G1 X89.621 Y71.852 E26.35016
G1 X90.309 Y71.7 E26.38297
G1 X90.995 Y71.564 E26.41553
G1 X91.717 Y71.433 E26.4497
G1 X92.463 Y71.311 E26.4849
G1 X93.232 Y71.199 E26.52109
G1 X94.04 Y71.094 E26.55903
G1 X95.674 Y70.922 E26.63553
G1 X96.53 Y70.85 E26.67553
G1 X97.408 Y70.788 E26.71652
G1 X98.329 Y70.735 E26.75947
G1 X99.229 Y70.697 E26.80142
G1 X100.169 Y70.668 E26.84521
G1 X101.132 Y70.65 E26.89006
G1 X102.517 Y70.644 E26.95455
G1 X103.939 Y70.66 E27.02077
G1 X105.423 Y70.698 E27.08989
G1 X106.897 Y70.758 E27.15859
G1 X108.432 Y70.84 E27.23016
G1 X110.004 Y70.944 E27.30352
G1 X111.616 Y71.071 E27.37882
G1 X113.262 Y71.219 E27.45577
G1 X114.945 Y71.39 E27.53454
G1 X116.661 Y71.582 E27.61494
G1 X118.414 Y71.798 E27.69719
G1 X120.203 Y72.034 E27.78121
G1 X122.027 Y72.294 E27.86701
G1 X123.887 Y72.576 E27.9546
G1 X125.78 Y72.879 E28.04387
G1 X127.687 Y73.201 E28.13393
G1 X129.476 Y73.223 E28.21724
G1 X129.116 Y72.776 E28.24396
G1 X128.732 Y72.393 E28.26922
G1 X128.32 Y72.058 E28.29394
G1 X127.895 Y71.779 E28.31762
G1 X126.622 Y71.561 E28.37775
G1 X123.986 Y71.134 E28.5021
G1 X121.466 Y70.759 E28.62073
G1 X118.986 Y70.419 E28.73729
G1 X116.571 Y70.122 E28.85059
G1 X115.389 Y69.989 E28.90598
G1 X113.069 Y69.753 E29.01456
G1 X111.911 Y69.649 E29.0687
G1 X109.713 Y69.479 E29.17136
G1 X107.559 Y69.348 E29.27184
G1 X105.434 Y69.258 E29.37088
G1 X104.457 Y69.231 E29.41639
G1 X102.533 Y69.205 E29.50599
G1 X101.512 Y69.206 E29.55353
G1 X100.563 Y69.219 E29.59772
G1 X98.721 Y69.276 E29.68353
G1 X97.83 Y69.32 E29.72507
G1 X96.956 Y69.374 E29.76585
G1 X96.101 Y69.438 E29.80577
G1 X95.264 Y69.512 E29.8449
G1 X94.446 Y69.596 E29.88319
G1 X93.647 Y69.69 E29.92065
G1 X92.87 Y69.794 E29.95715
